img/manaSymbols/outline/outlinew.svg

﻿<?xml version="1.0" encoding="utf-8"?>
<svg width="660" height="660" viewBox="0 0 660 660" version="1.1" xmlns="http://www.w3.org/2000/svg" xml:space="preserve" style="fill-rule: evenodd; clip-rule: evenodd; stroke-linejoin: round; stroke-miterlimit: 2;" preserveAspectRatio="xMidYMid meet" zoomAndPan="magnify" contentScriptType="application/ecmascript" contentStyleType="text/css">
  <path d="M300-30C117.868-30-30 117.868-30 300s147.868 330 330 330 330-147.868 330-330S482.132-30 300-30zm0 30c165.575 0 300 134.425 300 300S465.575 600 300 600 0 465.575 0 300 134.425 0 300 0z" style="fill: rgb(92, 75, 47);" transform="matrix(1,0,0,1,30,30)" />
  <path d="M586.2 342.4c-39.4-22.2-64.6-33.3-75.7-33.3-8.1 0-14.4 6.2-18.9 18.6-4.5 12.4-13.6 18.5-27.2 18.5-5.6 0-16.9-2-34.1-6-9.6 14.6-14.4 24-14.4 28 0 5.6 4.1 12.1 12.4 19.7 8.3 7.6 15.2 11.3 20.9 11.3 3.6 0 8.5-.7 14.7-2.3 6.2-1.5 10.3-2.3 12.4-2.3 6.2 0 9.3 11.4 9.3 34.1 0 21.7-5 55-15.1 99.9-13.1-51.5-27-77.2-41.6-77.2-2 0-6.2 1.5-12.5 4.6-6.3 3-11 4.5-14 4.5-14.6 0-27.7-13.4-39.4-40.1-23.2 3.5-34.8 15.4-34.8 35.6 0 10.1 4.7 18.2 14 24.2 9.3 6.1 14 10.4 14 12.9 0 13.6-19.9 34.6-59.8 62.8-21.2 15.1-35.8 25.7-43.9 31.8 7-9.1 14.1-20.9 21.2-35.6 8.1-16.6 12.1-29.5 12.1-38.6 0-5-5.8-12.1-17.4-21.2-11.6-9.1-17.4-18.7-17.4-28.8 0-8.6 3-19.2 9.1-31.8-6.6-7.6-14.4-11.4-23.5-11.4-20.2 0-30.3 6.6-30.3 19.7v20.4c.5 16.7-12.1 25-37.9 25-19.7 0-52.7-4.6-99.2-13.6 52.5-13.1 78.7-28.3 78.7-45.4 0 2-1-4-3-18.2-2-15.6 9.1-29.8 33.3-42.4-4.5-23.2-16.6-34.8-36.3-34.8-3 0-8.6 5.3-16.6 15.9-8.1 10.6-15.6 15.9-22.7 15.9-12.1 0-27.8-13.1-46.9-39.4-9.1-13.1-23-32.5-41.6-58.3 11.6 6.1 23.2 12.1 34.8 18.2 15.1 7.1 27.3 10.6 36.3 10.6 7.1 0 14-6.2 20.8-18.6 6.8-12.4 15.8-18.6 26.9-18.6 1.5 0 11.6 3 30.3 9.1 9.6-14.6 14.4-25.5 14.4-32.6 0-6.1-3.7-13-11-20.8-7.3-7.8-14-11.7-20.1-11.7-2.5 0-6.4.8-11.7 2.3-5.3 1.5-9.2 2.3-11.7 2.3-9.1 0-13.6-11.4-13.6-34.1 0-6.1 5.8-40.6 17.4-103.7-.5 7.6 2.8 21.7 9.8 42.4 8.6 25.2 18.7 37.9 30.3 37.9 2 0 6.1-1.5 12.1-4.5 6.1-3 10.8-4.5 14.4-4.5 11.6 0 21.2 6.6 28.8 19.7l11.4 20.4c10.6 0 19.4-3.8 26.5-11.3 7.1-7.6 10.6-16.7 10.6-27.3 0-11.1-4.7-19.6-14-25.4-9.4-5.8-14-10.2-14-13.2 0-10.6 16.7-28.5 50-53.7C319.5 27.8 337 16 345 12.4c-21.7 29.3-32.6 50.7-32.6 64.3 0 7.1 4.3 14.6 12.9 22.7 10.6 9.6 16.7 16.4 18.2 20.4 5 11.6 4.5 27.5-1.5 47.7 13.6 9.6 24 14.4 31 14.4 14.6 0 21.9-7.6 21.9-22.7 0-1.5-.6-6.3-1.9-14.4-1.3-8.1-1.6-12.6-1.1-13.6 2-7.1 15.9-10.6 41.6-10.6 16.2 0 49.7 4.5 100.7 13.6-11.1 3-27.8 7.6-50 13.6-20.2 6.1-30.3 12.9-30.3 20.4 0 3.5 1.3 9.6 3.8 18.2s3.8 14.9 3.8 18.9c0 7.1-4.5 13.6-13.6 19.7l-25.7 18.2c6.1 11.1 10.1 17.7 12.1 19.7 5 6.1 11.9 9.1 20.4 9.1 6.1 0 11.6-5.3 16.7-15.9 5-10.6 13.1-15.9 24.2-15.9 13.6 0 29 12.6 46.2 37.9 9.6 14.2 24.5 35.6 44.6 64.4m-168-43.9c0-32.3-11.9-60.3-35.6-84-23.7-23.7-51.7-35.6-84-35.6-32.8 0-61.1 11.7-84.8 35.2-23.7 23.5-35.8 51.6-36.3 84.4-.5 32.3 11.5 60.2 36 83.6 24.5 23.5 52.9 35.2 85.2 35.2 34.3 0 63-11.2 85.9-33.7 23-22.4 34.2-50.8 33.7-85.1m-11.4 0c0 30.8-10.3 56.3-31 76.4-20.7 20.2-46.4 30.3-77.2 30.3-29.8 0-55.3-10.3-76.4-31-21.2-20.7-31.8-45.9-31.8-75.7 0-29.3 10.7-54.4 32.2-75.3 21.5-20.9 46.8-31.4 76.1-31.4s54.6 10.6 76.1 31.8c21.4 21.2 32.2 46.2 32.2 74.9" style="fill: rgb(92, 75, 47); fill-rule: nonzero;" transform="matrix(1,0,0,1,30,30)" />
</svg>

<?xml version="1.0" encoding="UTF-8" standalone="no"?>
<!DOCTYPE svg PUBLIC "-//W3C//DTD SVG 1.1//EN" "http://www.w3.org/Graphics/SVG/1.1/DTD/svg11.dtd">
<svg width="660" height="660" viewBox="0 0 660 660" version="1.1" xmlns="http://www.w3.org/2000/svg" xmlns:xlink="http://www.w3.org/1999/xlink" xml:space="preserve" xmlns:serif="http://www.serif.com/" style="fill-rule:evenodd;clip-rule:evenodd;stroke-linejoin:round;stroke-miterlimit:2;">
    <g transform="matrix(1,0,0,1,30,30)">
        <path d="M300,-30C117.868,-30 -30,117.868 -30,300C-30,482.132 117.868,630 300,630C482.132,630 630,482.132 630,300C630,117.868 482.132,-30 300,-30ZM300,0C465.575,0 600,134.425 600,300C600,465.575 465.575,600 300,600C134.425,600 0,465.575 0,300C0,134.425 134.425,0 300,0Z" style="fill:rgb(92,75,47);"/>
    </g>
    <g transform="matrix(1,0,0,1,30,30)">
        <path d="M586.2,342.4C546.8,320.2 521.6,309.1 510.5,309.1C502.4,309.1 496.1,315.3 491.6,327.7C487.1,340.1 478,346.2 464.4,346.2C458.8,346.2 447.5,344.2 430.3,340.2C420.7,354.8 415.9,364.2 415.9,368.2C415.9,373.8 420,380.3 428.3,387.9C436.6,395.5 443.5,399.2 449.2,399.2C452.8,399.2 457.7,398.5 463.9,396.9C470.1,395.4 474.2,394.6 476.3,394.6C482.5,394.6 485.6,406 485.6,428.7C485.6,450.4 480.6,483.7 470.5,528.6C457.4,477.1 443.5,451.4 428.9,451.4C426.9,451.4 422.7,452.9 416.4,456C410.1,459 405.4,460.5 402.4,460.5C387.8,460.5 374.7,447.1 363,420.4C339.8,423.9 328.2,435.8 328.2,456C328.2,466.1 332.9,474.2 342.2,480.2C351.5,486.3 356.2,490.6 356.2,493.1C356.2,506.7 336.3,527.7 296.4,555.9C275.2,571 260.6,581.6 252.5,587.7C259.5,578.6 266.6,566.8 273.7,552.1C281.8,535.5 285.8,522.6 285.8,513.5C285.8,508.5 280,501.4 268.4,492.3C256.8,483.2 251,473.6 251,463.5C251,454.9 254,444.3 260.1,431.7C253.5,424.1 245.7,420.3 236.6,420.3C216.4,420.3 206.3,426.9 206.3,440C206.3,430.9 206.3,437.7 206.3,460.4C206.8,477.1 194.2,485.4 168.4,485.4C148.7,485.4 115.7,480.8 69.2,471.8C121.7,458.7 147.9,443.5 147.9,426.4C147.9,428.4 146.9,422.4 144.9,408.2C142.9,392.6 154,378.4 178.2,365.8C173.7,342.6 161.6,331 141.9,331C138.9,331 133.3,336.3 125.3,346.9C117.2,357.5 109.7,362.8 102.6,362.8C90.5,362.8 74.8,349.7 55.7,323.4C46.6,310.3 32.7,290.9 14.1,265.1C25.7,271.2 37.3,277.2 48.9,283.3C64,290.4 76.2,293.9 85.2,293.9C92.3,293.9 99.2,287.7 106,275.3C112.8,262.9 121.8,256.7 132.9,256.7C134.4,256.7 144.5,259.7 163.2,265.8C172.8,251.2 177.6,240.3 177.6,233.2C177.6,227.1 173.9,220.2 166.6,212.4C159.3,204.6 152.6,200.7 146.5,200.7C144,200.7 140.1,201.5 134.8,203C129.5,204.5 125.6,205.3 123.1,205.3C114,205.3 109.5,193.9 109.5,171.2C109.5,165.1 115.3,130.6 126.9,67.5C126.4,75.1 129.7,89.2 136.7,109.9C145.3,135.1 155.4,147.8 167,147.8C169,147.8 173.1,146.3 179.1,143.3C185.2,140.3 189.9,138.8 193.5,138.8C205.1,138.8 214.7,145.4 222.3,158.5L233.7,178.9C244.3,178.9 253.1,175.1 260.2,167.6C267.3,160 270.8,150.9 270.8,140.3C270.8,129.2 266.1,120.7 256.8,114.9C247.4,109.1 242.8,104.7 242.8,101.7C242.8,91.1 259.5,73.2 292.8,48C319.5,27.8 337,16 345,12.4C323.3,41.7 312.4,63.1 312.4,76.7C312.4,83.8 316.7,91.3 325.3,99.4C335.9,109 342,115.8 343.5,119.8C348.5,131.4 348,147.3 342,167.5C355.6,177.1 366,181.9 373,181.9C387.6,181.9 394.9,174.3 394.9,159.2C394.9,157.7 394.3,152.9 393,144.8C391.7,136.7 391.4,132.2 391.9,131.2C393.9,124.1 407.8,120.6 433.5,120.6C449.7,120.6 483.2,125.1 534.2,134.2C523.1,137.2 506.4,141.8 484.2,147.8C464,153.9 453.9,160.7 453.9,168.2C453.9,171.7 455.2,177.8 457.7,186.4C460.2,195 461.5,201.3 461.5,205.3C461.5,212.4 457,218.9 447.9,225L422.2,243.2C428.3,254.3 432.3,260.9 434.3,262.9C439.3,269 446.2,272 454.7,272C460.8,272 466.3,266.7 471.4,256.1C476.4,245.5 484.5,240.2 495.6,240.2C509.2,240.2 524.6,252.8 541.8,278.1C551.4,292.3 566.3,313.7 586.4,342.5M418.4,298.6C418.4,266.3 406.5,238.3 382.8,214.6C359.1,190.9 331.1,179 298.8,179C266,179 237.7,190.7 214,214.2C190.3,237.7 178.2,265.8 177.7,298.6C177.2,330.9 189.2,358.8 213.7,382.2C238.2,405.7 266.6,417.4 298.9,417.4C333.2,417.4 361.9,406.2 384.8,383.7C407.8,361.3 419,332.9 418.5,298.6M407.1,298.6C407.1,329.4 396.8,354.9 376.1,375C355.4,395.2 329.7,405.3 298.9,405.3C269.1,405.3 243.6,395 222.5,374.3C201.3,353.6 190.7,328.4 190.7,298.6C190.7,269.3 201.4,244.2 222.9,223.3C244.4,202.4 269.7,191.9 299,191.9C328.3,191.9 353.6,202.5 375.1,223.7C396.5,244.9 407.3,269.9 407.3,298.6" style="fill:rgb(92,75,47);fill-rule:nonzero;"/>
    </g>
</svg>
